!!!OTL: ES BLEIS SICH VON DER LINNE
!!!ARE: Europa, Mitteleuropa, Deutschland, Westfalen, Soest
!!!SCT: E1561
!!!YEM: Copyright 1995, estate of Helmut Schaffrath.
**kern
*ICvox
*Ivox
*M3/4
*k[f#]
*G:
{4d
=1
4.g
8a
8b
8cc
=2
4dd
4b}
{8ee
8dd
=3
4dd
4dd
4b
=4
2a}
{4d
=5
4.g
8a
8b
8cc
=6
4dd
4b}
{8ee
8dd
=7
4dd
4dd
4b
=8
2a}
{8a
8b
=9
4cc
4a
8b
8a
=10
4g
4d}
{4b
=11
4cc
4b
4a
=12
2g}
==
!!!AGN: Staende -, Bauern - Lied, Flachsbrechen, bei der Arbeit
!!!ONB: ESAC (Essen Associative Code) Database: ERK3
!!!AMT: simple triple
!!!AIN: vox
!!!EED: Helmut Schaffrath
!!!EEV: 1.0
*-
